svgs/sharp-solid/walkie-talkie.svg

<svg xmlns="http://www.w3.org/2000/svg" viewBox="0 0 384 512"><!--! Font Awesome Pro 6.6.0 by @fontawesome - https://fontawesome.com License - https://fontawesome.com/license (Commercial License) Copyright 2024 Fonticons, Inc. --><path d="M112 24l0-24L64 0l0 24 0 72L0 96 0 320l32 32 0 160 320 0 0-160 32-32 0-224-64 0 0-32-64 0 0 32-32 0 0-32-64 0 0 32-48 0 0-72zm0 136l160 0 16 0 0 32-16 0-160 0-16 0 0-32 16 0zm0 64l160 0 16 0 0 32-16 0-160 0-16 0 0-32 16 0zm0 64l160 0 16 0 0 32-16 0-160 0-16 0 0-32 16 0z"/></svg>

<svg xmlns="http://www.w3.org/2000/svg" viewBox="0 0 384 512"><!--! Font Awesome Pro 6.4.2 by @fontawesome - https://fontawesome.com License - https://fontawesome.com/license (Commercial License) Copyright 2023 Fonticons, Inc. --><path d="M112 24V0H64V24 96H0V320l32 32V512H352V352l32-32V96H320V64H256V96H224V64H160V96H112V24zm0 136H272h16v32H272 112 96V160h16zm0 64H272h16v32H272 112 96V224h16zm0 64H272h16v32H272 112 96V288h16z"/></svg>
